X: 2
T: Martin Wynne's
R: reel
M: 4/4
L: 1/8
K: Gmaj
|: A/B/c |: dged B2Ac | BGEG FA~A2 | BG B/c/d cdeg | fgaf gfeB |!dged B2Ac | BGEG FA~A2 | BG B/c/d cdeg |1 fgaf ~g3B:|2 fgaf ~g3f||!g3a gfeB | dged BG A/B/c | dggf gfeB | dega bggf | g2af gfeB |!dged BG A/B/c |dggf gfeg |1 fgaf ~g3f:|2 fgaf g2||!


Tune 461	Setting 25327

